symbols/web/sd/materialsymbolsoutlined/sd_wght200_48px.svg

<svg xmlns="http://www.w3.org/2000/svg" height="48" width="48"><path d="M14.45 29.45h6.15q.55 0 .975-.325Q22 28.8 22 28.25v-3.7q0-.55-.425-.9t-.975-.35h-5.85v-3.2h5.7v.9H22v-1.2q0-.55-.425-.9t-.975-.35h-6.15q-.55 0-.875.325-.325.325-.325.925v3.65q0 .55.325.9t.875.35h6v3.2h-5.7V27h-1.5v1.25q0 .55.325.875.325.325.875.325Zm11.55 0h6.4q.95 0 1.65-.7t.7-1.7v-6.1q0-1-.7-1.7t-1.65-.7H26Zm1.55-1.55v-7.8h5.05q.25 0 .45.175t.2.425v6.6q0 .25-.2.425t-.45.175ZM8.75 38q-1.15 0-1.95-.8T6 35.25v-22.5q0-1.15.8-1.95t1.95-.8h30.5q1.15 0 1.95.8t.8 1.95v22.5q0 1.15-.8 1.95t-1.95.8Zm-1.2-26.45V36.45 11.55Zm31.7 24.9q.45 0 .825-.375.375-.375.375-.825v-22.5q0-.45-.375-.825-.375-.375-.825-.375H8.75q-.45 0-.825.375-.375.375-.375.825v22.5q0 .45.375.825.375.375.825.375Z"/></svg>

<svg xmlns="http://www.w3.org/2000/svg" height="48" width="48"><path d="M14.45 29.45H20.6Q21.15 29.45 21.575 29.125Q22 28.8 22 28.25V24.55Q22 24 21.575 23.65Q21.15 23.3 20.6 23.3H14.75V20.1H20.45V21H22V19.8Q22 19.25 21.575 18.9Q21.15 18.55 20.6 18.55H14.45Q13.9 18.55 13.575 18.875Q13.25 19.2 13.25 19.8V23.45Q13.25 24 13.575 24.35Q13.9 24.7 14.45 24.7H20.45V27.9H14.75V27H13.25V28.25Q13.25 28.8 13.575 29.125Q13.9 29.45 14.45 29.45ZM26 29.45H32.4Q33.35 29.45 34.05 28.75Q34.75 28.05 34.75 27.05V20.95Q34.75 19.95 34.05 19.25Q33.35 18.55 32.4 18.55H26ZM27.55 27.9V20.1H32.6Q32.85 20.1 33.05 20.275Q33.25 20.45 33.25 20.7V27.3Q33.25 27.55 33.05 27.725Q32.85 27.9 32.6 27.9ZM8.75 38Q7.6 38 6.8 37.2Q6 36.4 6 35.25V12.75Q6 11.6 6.8 10.8Q7.6 10 8.75 10H39.25Q40.4 10 41.2 10.8Q42 11.6 42 12.75V35.25Q42 36.4 41.2 37.2Q40.4 38 39.25 38ZM7.55 11.55Q7.55 11.55 7.55 11.9Q7.55 12.25 7.55 12.75V35.25Q7.55 35.75 7.55 36.1Q7.55 36.45 7.55 36.45Q7.55 36.45 7.55 36.1Q7.55 35.75 7.55 35.25V12.75Q7.55 12.25 7.55 11.9Q7.55 11.55 7.55 11.55ZM39.25 36.45Q39.7 36.45 40.075 36.075Q40.45 35.7 40.45 35.25V12.75Q40.45 12.3 40.075 11.925Q39.7 11.55 39.25 11.55H8.75Q8.3 11.55 7.925 11.925Q7.55 12.3 7.55 12.75V35.25Q7.55 35.7 7.925 36.075Q8.3 36.45 8.75 36.45Z"/></svg>
